assets/img/hr-red-7.svg

<?xml version="1.0" encoding="UTF-8" standalone="no"?>
<svg width="60px" height="8px" viewBox="0 0 60 8" version="1.1" xmlns="http://www.w3.org/2000/svg" xmlns:xlink="http://www.w3.org/1999/xlink">
    <!-- Generator: Sketch 39.1 (31720) - http://www.bohemiancoding.com/sketch -->
    <title>Group 7</title>
    <desc>Created with Sketch.</desc>
    <defs></defs>
    <g id="Page-1" stroke="none" stroke-width="1" fill="none" fill-rule="evenodd">
        <g id="Playbook-Landing-Page-2b" transform="translate(-100.000000, -4249.000000)" fill="#E21C3D">
            <g id="Group-7" transform="translate(100.000000, 4249.000000)">
                <path d="M14,4 C14,1.790861 15.7890275,0 18.0042577,0 L41.9957423,0 C44.2072328,0 46,1.79535615 46,4 L46,4 C46,6.209139 44.2109725,8 41.9957423,8 L18.0042577,8 C15.7927672,8 14,6.20464385 14,4 L14,4 Z" id="Rectangle-234-Copy-16" transform="translate(30.000000, 4.000000) rotate(-180.000000) translate(-30.000000, -4.000000) "></path>
                <path d="M52,4 C52,1.790861 53.7953562,0 56,0 L56,0 C58.209139,0 60,1.79535615 60,4 L60,4 C60,6.209139 58.2046438,8 56,8 L56,8 C53.790861,8 52,6.20464385 52,4 L52,4 Z" id="Rectangle-234-Copy-17" transform="translate(56.000000, 4.000000) rotate(-180.000000) translate(-56.000000, -4.000000) "></path>
                <path d="M-1.77635684e-16,4 C-1.77635684e-16,1.790861 1.79535615,0 4,0 L4,0 C6.209139,0 8,1.79535615 8,4 L8,4 C8,6.209139 6.20464385,8 4,8 L4,8 C1.790861,8 -1.77635684e-16,6.20464385 -1.77635684e-16,4 L-1.77635684e-16,4 Z" id="Rectangle-234-Copy-18" transform="translate(4.000000, 4.000000) rotate(-180.000000) translate(-4.000000, -4.000000) "></path>
            </g>
        </g>
    </g>
</svg>

<svg width="60" height="8" xmlns="http://www.w3.org/2000/svg"><path d="M46 4a4 4 0 01-4.004 4H18.004a4 4 0 110-8h23.992A4.005 4.005 0 0146 4zm14 0c0 2.21-1.795 4-4 4-2.21 0-4-1.795-4-4 0-2.21 1.795-4 4-4 2.21 0 4 1.795 4 4zM8 4c0 2.21-1.795 4-4 4-2.21 0-4-1.795-4-4 0-2.21 1.795-4 4-4 2.21 0 4 1.795 4 4z" fill="#E21C3D" fill-rule="evenodd"/></svg>
